neru-dark-classic/22x22/emotes/face-raspberry-symbolic.svg

<svg xmlns="http://www.w3.org/2000/svg" width="16" height="16"><path d="M8 1C4.13 1 1 4.13 1 8c0 3.86 3.13 7 7 7s7-3.14 7-7c0-3.87-3.13-7-7-7zM5 5c.55 0 1 .45 1 1s-.45 1-1 1-1-.45-1-1 .45-1 1-1zm6 0c.55 0 1 .45 1 1s-.45 1-1 1-1-.45-1-1 .45-1 1-1zM5.17 9.83a4.004 4.004 0 0 0 5.66 0l.7.7c-.44.45-.96.79-1.53 1.04v.68c0 .92-.67 1.68-1.5 1.68S7 13.17 7 12.25v-.35c-.95-.2-1.84-.67-2.53-1.37zm4.57 1.84zm-2.67.24zM8 12c.3 0 .59-.03.88-.09-.29.05-.58.09-.88.09z" fill="#d3dae3"/></svg>

<svg xmlns="http://www.w3.org/2000/svg" width="16" height="16" version="1.1">
 <path style="fill:#d3dae3" d="M 8,1 C 4.13,1 1,4.13 1,8 1,11.86 4.13,15 8,15 11.87,15 15,11.86 15,8 15,4.13 11.87,1 8,1 Z M 5,5 C 5.55,5 6,5.45 6,6 6,6.55 5.55,7 5,7 4.45,7 4,6.55 4,6 4,5.45 4.45,5 5,5 Z M 11,5 C 11.55,5 12,5.45 12,6 12,6.55 11.55,7 11,7 10.45,7 10,6.55 10,6 10,5.45 10.45,5 11,5 Z M 5.17,9.83 C 5.92,10.58 6.94,11 8,11 9.06,11 10.08,10.58 10.83,9.83 L 11.53,10.53 C 11.09,10.98 10.57,11.32 10,11.57 V 12.25 C 10,13.17 9.33,13.93 8.5,13.93 7.67,13.93 7,13.17 7,12.25 V 11.9 C 6.05,11.7 5.16,11.23 4.47,10.53 Z M 9.74,11.67 C 9.51,11.76 9.27,11.84 9.03,11.89 9.27,11.84 9.51,11.76 9.74,11.67 Z M 7.07,11.91 C 7.38,11.97 7.69,12 8,12 7.69,12 7.38,11.97 7.07,11.91 Z M 8,12 C 8.3,12 8.59,11.97 8.88,11.91 8.59,11.96 8.3,12 8,12 Z"/>
</svg>
